X:1
T:To Rosie Instr:Lute
C:Achazia Songweaver
N:made 15 mars 2009
Q:1/4=105
V:1
M:4/4
L:1/8
K:C
z7 B/c/ |[dG,]D [BG]D [Cc]D [B2B,]D |
[G,G3] D GD CD B,[DB/]c/ |[dG,]D [Gg][dD] [Ce]D [B,d2] D |[B4G,]D GD CD B,[DB/]c/ |
[G,d]D [GB]D [cC]D [B,B2] D |[G3G,]D GD CD B,[B/D]c/ |[G,d]D [Gg][Dd] [Ce]D [d2B,]D |[G,B8] D GD CD B,D |
[E,e6] B, GB, ^F[B,c'] [bE2] [B,d-] |[D,d4] A, ^FA, E[A,c'] [D2b][zc-] |[c4C,]G, CG, DG, C[G,c] |[c6C,]G, CG, DG, C[eG,] |
[E,e4] B, GB, ^F[B,c'] [bE2] [d-B,] |[D,d2] A, ^FA, E[A,c'] [bD2] [zc-] |[C,c4] G, CG, DG, C[G,c] |[C,c4] G, CG, DG, CG, |
[E,g]B, G[B,g] [^Fg][B,a] [Eb]B, |[G,b]D G[Dg] [Ag][Da] [zB2b2] D |[D,a3] A, E[A,^f] [^Ff4-] A, [zE2] A, |[D,^f2] A, EA, [^F^f][A,g] [fE2] e |
[E,g]B, G[B,g] [^Fg][B,a] [Eb]B, |[G,b3] D G[Dg] [Ag][aD] [zB2b2] D |[D,a3] A, E[A,^f] [^Ff4] A, [zE2] [A,e] |[D,^f6] A, EA, ^FA, [zE2] B/c/ |
[G,d]D [GB]D [Cc]D [B,B2] D |[G,G3] D GD CD B,[B/D]c/ |[G,d]D [Gg][Dd] [Ce]D [B,d2] D |
[G,B4] D GD CD B,[B/D]c/ |[G,d]D [GB]D [Cc]D [B,B2] D |[G,G3] D GD CD B,[B/D]c/ |
[G,d]D [Gg][Dd] [Ce]D [B,d2] D |[G,B8] D GD CD B,D |[E,e6] B, GB, ^F[B,c'] [bE2] [B,d-] |[D,d4] A, ^FA, E[A,c'] [bD2] [zc-] |
[C,c4] G, CG, DG, C[G,c] |[C,c6] G, CG, DG, C[G,e] |[E,e4] B, GB, ^F[B,c'] [bE2] [B,d-] |[D,d2] A, ^FA, E[A,c'] [bD2] [zc-] |
[C,c4] G, CG, DG, C[G,c] |[C,c4] G, CG, DG, CG, |[E,g]B, G[B,g] [^Fg][B,a] [Eb]B, |[G,b]D G[Dg] [Ag][Da] [zB2b2] D |
[D,a3] A, E[A,^f] [^Ff4-] A, [zE2] A, |[D,^f2] A, EA, [^F^f][A,g] [fE2] e |[E,g]B, G[B,g] [^Fg][B,a] [Eb]B, |[G,b3] D G[Dg] [Ag][Da] [zB2b2] D |
[D,a3] A, E[A,^f] [^Ff4] A, [zE2] [A,e] |[D,^f6] A, EA, ^FA, E2 |G,D GD CD B,D |G,D GD CD B,D |
G,D GD CD B,D |G,D GD CD B,D |G,D GD CD B,D |G,D GD CD B,D |
G,D GD CD B,D |G,8 |]
